places/scalable/folder-black-wifi.svg

<svg xmlns="http://www.w3.org/2000/svg" width="256" height="256" style="isolation:isolate"><path d="M53.039 21C16.724 21 13 23.055 13 59.371v52.167h230V79.563c0-36.316-3.724-42.102-40.039-42.102h-89.336L97.198 21H53.039z"/><path fill="#1A1A1A" d="M53.039 70.384C16.722 70.384 13 74.114 13 110.429v84.524C13 231.269 16.722 235 53.039 235h149.922c36.317 0 40.039-3.731 40.039-40.047V93.969c0-36.316-3.722-40.047-40.039-40.047H119.53l-16.438 16.462H53.039z"/><linearGradient id="a" x2="0" y1=".5" y2="-.5" gradientTransform="matrix(230 0 0 181.078 13 53.922)" gradientUnits="userSpaceOnUse"><stop offset="0%" stop-opacity=".07" stop-color="#fff"/><stop offset="67.282%" stop-opacity="0" stop-color="#fcefe8"/></linearGradient><path fill="url(#a)" d="M53.039 70.384C16.722 70.384 13 74.114 13 110.429v84.524C13 231.269 16.722 235 53.039 235h149.922c36.317 0 40.039-3.731 40.039-40.047V93.969c0-36.316-3.722-40.047-40.039-40.047H119.53l-16.438 16.462H53.039z"/><g opacity=".4"><radialGradient id="b" cx=".5" cy=".5" r=".272" fx=".5" fy=".136" gradientTransform="matrix(230 0 0 60.62 13 21)" gradientUnits="userSpaceOnUse"><stop offset="0%" stop-color="#fff"/><stop offset="100%" stop-opacity=".204" stop-color="#fff"/></radialGradient><path fill="url(#b)" d="M53.039 21C16.724 21 13 23.055 13 59.371v2.059c0-36.316 3.724-38.373 40.039-38.373h44.159l16.427 16.461h89.336c36.315 0 40.039 5.786 40.039 42.102v-2.057c0-36.316-3.724-42.102-40.039-42.102h-89.336L97.198 21H53.039z"/></g><g opacity=".4"><radialGradient id="c" cx=".5" cy=".5" r=".272" fx=".482" fy=".211" gradientTransform="matrix(230 0 0 58.565 13 53.922)" gradientUnits="userSpaceOnUse"><stop offset="0%" stop-color="#fff"/><stop offset="100%" stop-opacity=".204" stop-color="#fff"/></radialGradient><path fill="url(#c)" d="M119.53 53.922l-16.438 16.462H53.039C16.724 70.384 13 74.112 13 110.427v2.06c0-36.316 3.724-40.046 40.039-40.046h50.053l16.438-16.46h83.431c36.315 0 40.039 3.727 40.039 40.043v-2.057c0-36.316-3.724-40.045-40.039-40.045H119.53z"/></g><path fill="#FFF" d="M243 167.096l-65.715 65.845h25.676c36.315 0 40.039-3.727 40.039-40.043v-25.802z" opacity=".1"/><path d="M128 99c-21.726 0-43.449 8.199-60 24.609l5.999 5.963c29.859-29.606 78.142-29.606 108.003 0l5.998-5.963C171.448 107.199 149.727 99 128 99zm0 24.089c-15.645 0-31.286 5.905-43.198 17.715l5.999 5.948c20.581-20.407 53.816-20.407 74.399 0l5.998-5.948c-11.913-11.81-27.553-17.715-43.198-17.715zm0 24.215c-9.565 0-19.124 3.595-26.396 10.806l5.998 5.963c11.303-11.207 29.492-11.206 40.796 0l5.998-5.963c-7.273-7.211-16.831-10.806-26.396-10.806zm0 24.388a16.364 16.364 0 0 0-11.521 4.732 16.084 16.084 0 0 0-4.771 11.422c0 4.284 1.716 8.393 4.771 11.423A16.367 16.367 0 0 0 128 204c4.321 0 8.465-1.702 11.521-4.731a16.089 16.089 0 0 0 4.772-11.423c0-4.284-1.717-8.393-4.772-11.422A16.364 16.364 0 0 0 128 171.692z" fill="#FFF" opacity=".62"/><path d="M13 192.898v2.057C13 231.271 16.724 235 53.039 235h149.922c36.315 0 40.039-3.729 40.039-40.045v-2.057c0 36.316-3.724 40.043-40.039 40.043H53.039c-36.315 0-40.039-3.727-40.039-40.043z" opacity=".2"/></svg>

<?xml version="1.0" standalone="no"?>
<!--Generator: Gravit.io-->
<svg xmlns="http://www.w3.org/2000/svg" 
    xmlns:xlink="http://www.w3.org/1999/xlink" width="256" height="256" style="isolation:isolate" viewBox="0 0 256 256">
    <switch>
        <g>
            <g id="folder">
                <path id="orange" fill="#000000" d=" M 53.039 21 C 16.724 21 13 23.055 13 59.371 L 13 111.538 L 243 111.538 L 243 79.563 C 243 43.247 239.276 37.461 202.961 37.461 L 113.625 37.461 L 97.198 21 L 53.039 21 Z "/>
                <path id="change-color-easy" fill="#1A1A1A" d=" M 53.039 70.384 C 16.722 70.384 13 74.114 13 110.429 L 13 194.953 C 13 231.269 16.722 235 53.039 235 L 202.961 235 C 239.278 235 243 231.269 243 194.953 L 243 93.969 C 243 57.653 239.278 53.922 202.961 53.922 L 119.53 53.922 L 103.092 70.384 L 53.039 70.384 Z "/>
                <linearGradient id="_lgradient_1" x1="0" x2="2.83276944882399e-16" y1="0.5" y2="-0.5" gradientTransform="matrix(230,0,0,181.078,13,53.922)" gradientUnits="userSpaceOnUse">
                    <stop offset="0%" stop-opacity="0.07" style="stop-color:rgb(255,255,255)"/>
                    <stop offset="67.28219512106674%" stop-opacity="0" style="stop-color:rgb(252,239,232)"/>
                </linearGradient>
                <path id="gradient white" fill="url(#_lgradient_1)" d=" M 53.039 70.384 C 16.722 70.384 13 74.114 13 110.429 L 13 194.953 C 13 231.269 16.722 235 53.039 235 L 202.961 235 C 239.278 235 243 231.269 243 194.953 L 243 93.969 C 243 57.653 239.278 53.922 202.961 53.922 L 119.53 53.922 L 103.092 70.384 L 53.039 70.384 Z "/>
                <g opacity="0.4">
                    <radialGradient id="_rgradient_1" cx="0.5" cy="0.5" r="0.27154159375000003" fx="0.5000000213726793" fy="0.13577386516315215" gradientTransform="matrix(230,0,0,60.62,13,21)" gradientUnits="userSpaceOnUse">
                        <stop offset="0%" stop-opacity="1" style="stop-color:rgb(255,255,255)"/>
                        <stop offset="100%" stop-opacity="0.20392157" style="stop-color:rgb(255,255,255)"/>
                    </radialGradient>
                    <path id="white" fill="url(#_rgradient_1)" d=" M 53.039 21 C 16.724 21 13 23.055 13 59.371 L 13 61.43 C 13 25.114 16.724 23.057 53.039 23.057 L 97.198 23.057 L 113.625 39.518 L 202.961 39.518 C 239.276 39.518 243 45.304 243 81.62 L 243 79.563 C 243 43.247 239.276 37.461 202.961 37.461 L 113.625 37.461 L 97.198 21 L 53.039 21 Z "/>
                </g>
                <g opacity="0.4">
                    <radialGradient id="_rgradient_2" cx="0.5" cy="0.5" r="0.27154159375" fx="0.48214287810452355" fy="0.2108154047287485" gradientTransform="matrix(230,0,0,58.565,13,53.922)" gradientUnits="userSpaceOnUse">
                        <stop offset="0%" stop-opacity="1" style="stop-color:rgb(255,255,255)"/>
                        <stop offset="100%" stop-opacity="0.20392157" style="stop-color:rgb(255,255,255)"/>
                    </radialGradient>
                    <path id="white" fill="url(#_rgradient_2)" d=" M 119.53 53.922 L 103.092 70.384 L 53.039 70.384 C 16.724 70.384 13 74.112 13 110.427 L 13 112.487 C 13 76.171 16.724 72.441 53.039 72.441 L 103.092 72.441 L 119.53 55.981 L 202.961 55.981 C 239.276 55.981 243 59.708 243 96.024 L 243 93.967 C 243 57.651 239.276 53.922 202.961 53.922 L 119.53 53.922 Z "/>
                </g>
                <g opacity="0.1">
                    <path id="white" fill="rgb(255,255,255)" d=" M 243 167.096 L 177.285 232.941 L 202.961 232.941 C 239.276 232.941 243 229.214 243 192.898 L 243 167.096 Z "/>
                </g>

                <g opacity="0.62">
                    <path d=" M 128 99 C 106.274 99 84.551 107.199 68 123.609 L 73.999 129.572 C 103.858 99.966 152.141 99.966 182.002 129.572 L 188 123.609 C 171.448 107.199 149.727 99 128 99 L 128 99 Z  M 128 123.089 C 112.355 123.089 96.714 128.994 84.802 140.804 L 90.801 146.752 C 111.382 126.345 144.617 126.345 165.2 146.752 L 171.198 140.804 C 159.285 128.994 143.645 123.089 128 123.089 L 128 123.089 Z  M 128 147.304 C 118.435 147.304 108.876 150.899 101.604 158.11 L 107.602 164.073 C 118.905 152.866 137.094 152.867 148.398 164.073 L 154.396 158.11 C 147.123 150.899 137.565 147.304 128 147.304 L 128 147.304 Z  M 128 171.692 C 123.679 171.692 119.535 173.394 116.479 176.424 C 113.424 179.453 111.708 183.562 111.708 187.846 C 111.708 192.13 113.424 196.239 116.479 199.269 C 119.535 202.298 123.679 204 128 204 C 132.321 204 136.465 202.298 139.521 199.269 C 142.576 196.239 144.293 192.13 144.293 187.846 C 144.293 183.562 142.576 179.453 139.521 176.424 C 136.465 173.394 132.321 171.692 128 171.692 L 128 171.692 Z " id="wifi" fill="#FFFFFF"/>
                </g>

                <g opacity="0.2">
                    <path id="dark" fill="rgb(0,0,0)" d=" M 13 192.898 L 13 194.955 C 13 231.271 16.724 235 53.039 235 L 202.961 235 C 239.276 235 243 231.271 243 194.955 L 243 192.898 C 243 229.214 239.276 232.941 202.961 232.941 L 53.039 232.941 C 16.724 232.941 13 229.214 13 192.898 Z "/>
                </g>
            </g>
        </g>
    </switch>
</svg>
